X:2
T:The Ale is Dear
M:4/4
L:1/8
K:Edor
B2AB E2BA|BdAB FDDA|B2AB E2BA|BdAF E4|
B2AB E2BA|BdAB FDDA|B2AB E2BA|BdAF E4|
E2EF G2FE|D2DE DEFD|E2EF G2FE|B2AF E4|
E2EF G2FE|D2DE DEFD|G2BG F2AF|ABAF E4|
% ----------------------------------------------------------------------------
